source/images/ampersand.svg

<?xml version="1.0" encoding="UTF-8" standalone="no"?>
<svg width="100px" height="100px" viewBox="0 0 100 100" version="1.1" xmlns="http://www.w3.org/2000/svg" xmlns:xlink="http://www.w3.org/1999/xlink">
    <!-- Generator: Sketch 3.7.1 (28215) - http://www.bohemiancoding.com/sketch -->
    <title>amerpsand</title>
    <desc>Created with Sketch.</desc>
    <defs></defs>
    <g id="Page-1" stroke="none" stroke-width="1" fill="none" fill-rule="evenodd">
        <g id="amerpsand">
            <g id="Group">
                <path d="M98.9116129,49.4556452 C98.9116129,76.7685484 76.7696774,98.9120968 49.4551613,98.9120968 C22.1422581,98.9120968 0.000322580645,76.7685484 0.000322580645,49.4556452 C0.000322580645,22.1427419 22.1422581,-0.000806451613 49.4551613,-0.000806451613 C76.7696774,-0.000806451613 98.9116129,22.1427419 98.9116129,49.4556452" id="Fill-1" fill="#FFFFFF"></path>
                <path d="M38.6608065,38.535 C41.2027419,36.718871 43.151129,34.7285484 44.5075806,32.5640323 C45.8608065,30.3995161 46.5398387,28.4091935 46.5398387,26.5930645 C46.5398387,24.9995161 46.0785484,23.6801613 45.1559677,22.6317742 C44.235,21.585 43.1866129,21.0608065 42.0140323,21.0608065 C40.9801613,21.0608065 40.0301613,21.3059677 39.1640323,21.7946774 C38.2979032,22.2833871 37.635,23.0656452 37.1737097,24.1414516 C36.7124194,25.2172581 36.4817742,26.635 36.4817742,28.3946774 C36.4817742,30.9640323 37.2075806,34.3446774 38.6608065,38.535 L38.6608065,38.535 Z M51.9446774,68.2882258 C48.201129,64.2656452 45.6591935,61.4430645 44.318871,59.8237097 C42.4753226,57.6172581 40.7914516,55.4091935 39.268871,53.201129 C37.7462903,50.9962903 36.1043548,48.3414516 34.3446774,45.2398387 C31.8027419,47.0833871 29.9720968,48.9495161 28.8559677,50.835 C27.7382258,52.7204839 27.1785484,54.9075806 27.1785484,57.3930645 C27.1785484,59.851129 27.835,62.2817742 29.1495161,64.685 C30.4608065,67.0866129 32.2285484,68.9382258 34.4495161,70.2366129 C36.6704839,71.535 39.0108065,72.185 41.468871,72.185 C45.0172581,72.185 48.5091935,70.8866129 51.9446774,68.2882258 L51.9446774,68.2882258 Z M80.4398387,71.1382258 C78.401129,72.5898387 77.185,73.4704839 76.7946774,73.7769355 C76.2091935,74.2253226 74.9930645,75.2027419 73.1495161,76.7108065 C72.1414516,76.9059677 71.1479032,77.0043548 70.168871,77.0043548 C67.6495161,77.0043548 65.5366129,76.6414516 63.8285484,75.9156452 C60.8333871,74.7979032 57.7817742,72.9672581 54.6753226,70.4253226 C51.1043548,73.051129 48.0898387,74.8124194 45.6333871,75.7043548 C43.1769355,76.5995161 40.4140323,77.0462903 37.3446774,77.0462903 C33.5479032,77.0462903 30.3462903,76.2704839 27.7366129,74.7204839 C25.1269355,73.1704839 23.1591935,71.0479032 21.835,68.351129 C20.5091935,65.6543548 19.8446774,62.9656452 19.8446774,60.2833871 C19.8446774,56.3737097 20.9462903,52.9446774 23.1462903,49.9962903 C25.3462903,47.0495161 28.6172581,44.3737097 32.9624194,41.9720968 C31.2866129,37.9479032 30.4479032,34.2479032 30.4479032,30.8656452 C30.4479032,29.218871 30.7833871,27.6124194 31.4543548,26.0479032 C31.8995161,24.9301613 32.2833871,24.1833871 32.6059677,23.8059677 C32.9269355,23.4285484 34.3866129,22.1220968 36.985,19.8882258 C38.5495161,18.5737097 39.7785484,17.7091935 40.6720968,17.2898387 C41.8462903,16.7301613 43.1446774,16.451129 44.568871,16.451129 C46.9720968,16.451129 48.851129,17.1495161 50.2059677,18.5462903 C51.5608065,19.9446774 52.2382258,21.885 52.2382258,24.3720968 C52.2382258,26.9979032 51.2817742,29.7624194 49.3672581,32.668871 C47.4543548,35.5737097 44.3462903,38.4785484 40.0446774,41.385 C42.0027419,45.2091935 44.668871,49.2220968 48.0430645,53.4220968 C51.4156452,57.6237097 54.5430645,60.8817742 57.4269355,63.1995161 C60.2817742,59.9898387 61.7091935,56.5995161 61.7091935,53.0269355 C61.7091935,50.935 61.3995161,49.301129 60.7833871,48.1301613 C60.3898387,47.4043548 59.801129,46.9575806 59.0156452,46.7898387 C58.5091935,46.651129 56.2785484,46.5543548 52.3220968,46.4979032 L51.9446774,45.9527419 L54.6753226,41.9720968 C56.5220968,42.2220968 58.8172581,42.3495161 61.5591935,42.3495161 C63.3204839,42.3495161 66.7608065,42.251129 71.8817742,42.0543548 C73.3075806,41.9995161 75.8398387,41.9720968 79.4769355,41.9720968 C79.001129,44.0398387 78.6801613,45.9946774 78.5140323,47.8382258 C74.6575806,47.1962903 70.6479032,46.9156452 66.4866129,46.9995161 C66.8220968,48.285 66.9882258,49.501129 66.9882258,50.6462903 C66.9882258,53.1882258 66.4366129,55.6108065 65.3317742,57.9156452 C64.2253226,60.2220968 62.4430645,62.6446774 59.9801613,65.1866129 C65.0672581,68.8479032 70.085,70.6769355 75.0317742,70.6769355 C75.7866129,70.6769355 76.4366129,70.5866129 76.9817742,70.4043548 C77.5269355,70.2220968 78.4979032,69.7414516 79.8962903,68.9591935 L80.4398387,71.1382258 Z" id="Fill-4" fill="#1FA07C"></path>
            </g>
        </g>
    </g>
</svg>

<svg width="100" height="100" viewBox="0 0 100 100" xmlns="http://www.w3.org/2000/svg">
    <g fill="none" fill-rule="evenodd">
        <path d="M98.912 49.456c0 27.313-22.142 49.456-49.457 49.456C22.142 98.912 0 76.77 0 49.456 0 22.143 22.142 0 49.455 0 76.77 0 98.912 22.142 98.912 49.455" fill="#FFF"/>
        <path d="M38.66 38.535c2.543-1.816 4.49-3.806 5.848-5.97 1.353-2.165 2.032-4.156 2.032-5.972 0-1.593-.46-2.913-1.384-3.96-.92-1.048-1.97-1.572-3.142-1.572-1.034 0-1.984.246-2.85.735-.866.488-1.53 1.27-1.99 2.346-.462 1.077-.692 2.495-.692 4.255 0 2.57.726 5.95 2.18 10.14zm13.285 29.753c-3.744-4.022-6.286-6.845-7.626-8.464-1.845-2.207-3.53-4.415-5.05-6.623-1.524-2.204-3.166-4.86-4.925-7.96-2.542 1.843-4.373 3.71-5.49 5.595-1.117 1.885-1.676 4.073-1.676 6.558 0 2.458.655 4.89 1.97 7.292 1.31 2.402 3.08 4.253 5.3 5.552 2.22 1.298 4.56 1.948 7.02 1.948 3.547 0 7.04-1.298 10.475-3.897zm28.495 2.85c-2.04 1.452-3.255 2.332-3.645 2.64-.586.447-1.802 1.425-3.645 2.933-1.01.196-2.002.294-2.98.294-2.52 0-4.633-.363-6.34-1.088-2.997-1.118-6.048-2.95-9.155-5.49-3.57 2.625-6.585 4.386-9.042 5.278-2.456.896-5.22 1.342-8.288 1.342-3.797 0-7-.776-9.608-2.326-2.61-1.55-4.578-3.672-5.902-6.37-1.326-2.696-1.99-5.384-1.99-8.067 0-3.91 1.1-7.338 3.3-10.287 2.2-2.946 5.472-5.622 9.817-8.024-1.675-4.024-2.514-7.724-2.514-11.106 0-1.647.335-3.254 1.006-4.818.446-1.118.83-1.865 1.152-2.242.32-.377 1.78-1.684 4.38-3.918 1.564-1.314 2.793-2.18 3.686-2.598 1.174-.56 2.473-.84 3.897-.84 2.402 0 4.28.7 5.636 2.096 1.355 1.4 2.032 3.34 2.032 5.826 0 2.626-.956 5.39-2.87 8.297-1.914 2.904-5.022 5.81-9.323 8.715 1.958 3.824 4.624 7.837 7.998 12.037 3.373 4.202 6.5 7.46 9.384 9.778 2.855-3.21 4.282-6.6 4.282-10.173 0-2.092-.31-3.726-.927-4.897-.393-.726-.982-1.172-1.767-1.34-.507-.14-2.737-.236-6.694-.292l-.377-.545 2.73-3.98c1.847.25 4.142.377 6.884.377 1.76 0 5.2-.1 10.322-.296 1.426-.054 3.958-.082 7.595-.082-.476 2.068-.797 4.023-.963 5.866-3.856-.642-7.866-.922-12.027-.838.335 1.285.5 2.5.5 3.646 0 2.542-.55 4.965-1.655 7.27-1.107 2.306-2.89 4.73-5.352 7.27 5.087 3.662 10.105 5.49 15.052 5.49.755 0 1.405-.09 1.95-.272.545-.182 1.516-.663 2.914-1.445l.544 2.178z" fill="#1FA07C"/>
    </g>
</svg>
